src/section/form/title_m.svg

<svg width="315" height="39" viewBox="0 0 315 39" fill="none" xmlns="http://www.w3.org/2000/svg">
<path d="M111.546 13.783L111.399 13.93C112.554 14.77 113.814 16.261 114.192 17.584C116.502 18.928 117.909 14.287 111.546 13.783ZM110.58 11.893L110.769 12.481H117.111V11.893H110.58ZM110.244 18.067L110.433 18.676H117.741V18.067H110.244ZM113.205 18.067V26.908C113.205 27.16 113.121 27.286 112.806 27.286C112.386 27.286 110.601 27.16 110.601 27.16V27.454C111.525 27.601 111.945 27.874 112.218 28.231C112.491 28.588 112.575 29.155 112.596 29.89C115.158 29.68 115.515 28.546 115.515 26.971V18.067H113.205ZM116.943 18.067C116.817 19.159 116.523 21.175 116.271 22.351L116.481 22.498C117.384 21.616 118.56 20.125 119.232 19.138C119.652 19.117 119.883 19.054 120.051 18.886L117.909 16.849L116.691 18.067H116.943ZM116.187 11.893C115.767 12.859 114.78 14.476 114.045 15.442L114.234 15.589C115.641 14.959 117.51 13.846 118.56 12.964C119.001 12.922 119.232 12.901 119.4 12.712L117.216 10.633L115.935 11.893H116.187ZM118.602 11.998L118.77 12.607H129.627C129.921 12.607 130.152 12.502 130.194 12.271C129.27 11.452 127.758 10.255 127.758 10.255L126.393 11.998H118.602ZM121.08 18.088V18.697H127.38V18.088H121.08ZM121.08 21.238V21.826H127.38V21.238H121.08ZM121.08 24.388V24.976H127.359V24.388H121.08ZM123.096 11.998C123.054 12.964 122.97 14.455 122.886 15.253H123.285C124.23 14.497 125.385 13.111 126.204 11.998H123.096ZM124.482 25.648L124.314 25.816C125.511 26.74 127.065 28.315 127.716 29.68C130.131 30.772 131.202 26.131 124.482 25.648ZM119.652 15.001V26.131H120.009C121.038 26.131 122.025 25.585 122.025 25.333V15.61H127.275V15.001H122.13L119.652 13.993V15.001ZM126.267 15.001V25.816H126.666C127.506 25.816 128.661 25.333 128.682 25.165V15.904C129.039 15.82 129.291 15.673 129.396 15.547L127.17 13.825L126.078 15.001H126.267ZM121.836 25.501C120.891 26.845 118.812 28.63 116.964 29.596L117.111 29.869C119.505 29.428 122.403 28.336 123.831 27.265C124.188 27.349 124.419 27.328 124.524 27.139L121.836 25.501ZM149.829 11.074L146.49 10.15C145.944 13.531 144.81 17.08 143.592 19.39L143.886 19.558C146.049 17.689 147.792 14.938 149.01 11.536C149.493 11.536 149.745 11.347 149.829 11.074ZM151.887 14.203H152.118C151.866 21.805 151.404 26.131 150.48 26.929C150.249 27.139 150.039 27.223 149.661 27.223C149.136 27.223 147.813 27.118 146.91 27.055V27.349C147.813 27.538 148.548 27.832 148.884 28.21C149.199 28.567 149.283 29.134 149.283 29.89C150.585 29.89 151.509 29.575 152.286 28.777C153.588 27.496 154.113 23.653 154.386 15.19C154.89 15.127 155.163 14.98 155.352 14.812L153.168 12.88L151.887 14.203ZM153.273 14.203H146.931L146.637 14.812H153.273V14.203ZM146.637 17.71L146.406 17.815C147.162 19.201 147.918 21.112 147.96 22.75C150.06 24.724 152.328 20.272 146.637 17.71ZM144.81 15.778L142.08 13.93C141.156 16.03 138.363 19.768 136.431 21.049C136.179 21.217 135.633 21.322 135.633 21.322L136.662 23.989C137.208 23.8 137.649 23.023 137.796 21.658H136.662L136.683 21.91C139.35 20.461 142.794 17.542 144.18 15.736L143.55 15.82C144.201 16.156 144.663 16.009 144.81 15.778ZM142.479 11.62L139.539 10.045C139.077 11.746 137.439 14.812 136.263 15.841C136.074 15.967 135.591 16.093 135.591 16.093L136.662 18.739C137.187 18.508 137.628 17.731 137.712 16.408H136.557L136.578 16.66C138.405 15.526 140.778 13.195 141.912 11.662L141.24 11.767C141.933 12.04 142.353 11.872 142.479 11.62ZM137.922 24.22L137.628 24.199C137.628 25.333 136.83 26.572 136.221 27.055C135.633 27.454 135.276 28.126 135.591 28.798C135.969 29.554 137.124 29.596 137.628 29.008C138.363 28.189 138.657 26.509 137.922 24.22ZM141.975 23.485L141.744 23.59C142.395 24.535 142.983 25.984 143.025 27.202C144.81 28.756 146.784 25.039 141.975 23.485ZM139.728 23.842L139.476 23.926C139.707 25.081 139.77 26.614 139.497 27.937C140.988 29.848 143.571 26.614 139.728 23.842ZM141.597 18.844L141.366 18.949C141.954 19.978 142.605 21.511 142.668 22.792C144.411 24.367 146.448 20.839 141.597 18.844ZM136.158 21.343L136.935 23.632C139.728 22.687 142.143 21.7 143.424 21.154L143.403 20.881C140.4 21.112 137.418 21.301 136.158 21.343ZM135.843 16.114L136.725 18.361C138.993 17.605 140.988 16.828 141.975 16.366V16.072C139.497 16.135 136.977 16.156 135.843 16.114ZM166.146 17.752V18.34H174.756V17.752H166.146ZM165.537 15.358V19.201H165.873C166.839 19.201 167.91 18.697 167.91 18.508V15.946H174.756V15.358H168.036L165.537 14.371V15.358ZM173.16 15.358V18.949H173.58C174.336 18.949 175.554 18.55 175.575 18.382V16.261C175.932 16.177 176.163 16.03 176.268 15.883L174.021 14.245L172.971 15.358H173.16ZM164.97 21.616V22.204H175.869V21.616H164.97ZM164.97 23.632V24.241H175.869V23.632H164.97ZM164.97 25.69V26.278H175.869V25.69H164.97ZM174.588 19.6V26.761H175.008C175.764 26.761 176.982 26.32 177.003 26.173V20.524C177.381 20.461 177.654 20.272 177.759 20.125L175.491 18.424L174.378 19.6H174.588ZM164.067 19.6V27.202H164.424C165.411 27.202 166.461 26.677 166.461 26.446V20.188H175.554V19.6H166.608L164.067 18.592V19.6ZM167.868 26.047C166.524 27.328 163.668 28.861 160.938 29.596L161.001 29.89C164.109 29.701 167.364 28.966 169.296 27.958C169.926 28.105 170.304 28.021 170.493 27.811L167.868 26.047ZM171.396 26.929L171.333 27.202C173.979 27.79 175.848 28.798 176.856 29.554C179.208 31.15 183.576 26.74 171.396 26.929ZM163.227 13.51V14.098H178.326V13.51H163.227ZM163.227 12.397C163.332 13.447 162.639 14.413 161.988 14.791C161.295 15.085 160.791 15.631 161.001 16.429C161.232 17.248 162.156 17.479 162.891 17.122C163.962 16.597 164.634 14.833 163.521 12.376L163.227 12.397ZM176.919 13.51C176.835 14.203 176.625 15.379 176.415 16.072L176.604 16.219C177.528 15.841 178.809 15.127 179.523 14.623C179.964 14.602 180.174 14.539 180.321 14.35L178.032 12.166L176.688 13.51H176.919ZM169.254 10.15V13.825H171.711V10.948C172.236 10.885 172.383 10.675 172.425 10.423L169.254 10.15ZM164.382 10.297L164.193 10.423C164.865 11.116 165.537 12.271 165.642 13.3C167.637 14.749 169.59 10.885 164.382 10.297ZM174.273 10.297C173.958 11.368 173.391 12.943 172.908 13.951H173.202C174.42 13.279 175.932 12.271 176.835 11.578C177.297 11.599 177.549 11.431 177.654 11.158L174.273 10.297ZM188.364 11.368V16.996C188.364 21.238 188.154 25.921 185.76 29.68L185.991 29.848C190.569 26.383 190.863 21.007 190.863 16.996V11.578H191.241L188.364 10.549V11.368ZM201.363 11.578H201.573V16.303H201.972C202.728 16.303 203.946 15.925 203.967 15.799V12.565C204.387 12.481 204.681 12.292 204.828 12.124L202.455 10.36L201.363 11.578ZM203.169 14.917H189.729V15.505H203.169V14.917ZM202.938 11.578H189.603V12.166H202.938V11.578ZM191.262 21.091L192.291 23.275C196.827 22.456 200.439 21.679 202.539 21.133L202.518 20.818C197.751 20.986 193.257 21.112 191.262 21.091ZM198.633 17.92V17.689H195.399C194.79 18.592 193.068 20.356 191.724 20.881C191.514 20.965 191.052 21.028 191.052 21.028L192.102 23.716C192.648 23.485 193.089 22.645 193.173 21.301H192.081V21.532C194.16 20.818 197.1 19.243 198.633 17.92ZM199.011 18.928L198.864 19.096C200.229 19.978 201.909 21.574 202.623 22.981C205.122 24.073 206.067 19.222 199.011 18.928ZM203.337 26.719L202.077 28.42H189.288L189.456 29.029H205.038C205.332 29.029 205.563 28.924 205.605 28.693C204.786 27.874 203.337 26.719 203.337 26.719ZM201.888 23.464L200.649 24.997H190.884L191.052 25.585H203.568C203.862 25.585 204.072 25.48 204.135 25.249C203.274 24.493 201.888 23.464 201.888 23.464ZM202.665 16.051L201.384 17.605H191.073L191.262 18.193H204.408C204.723 18.193 204.933 18.088 204.996 17.857C204.093 17.101 202.665 16.051 202.665 16.051ZM199.158 22.834L196.071 22.582V28.714H198.465V23.38C198.969 23.296 199.116 23.107 199.158 22.834Z" fill="url(#paint0_linear_124_2132)"/>
<path d="M315 20H252V21H315V20Z" fill="url(#paint1_linear_124_2132)"/>
<path d="M63 20H0V21H63V20Z" fill="url(#paint2_linear_124_2132)"/>
<path d="M223.536 38.6645V39H92.4637C83.9248 39 77 31.2564 77 21.7077V17.2923C77 7.74363 83.9248 0 92.4637 0H223.536C232.075 0 239 7.74363 239 17.2923V21.7077C239 31.2564 232.075 39 223.536 39V38.329C231.745 38.3156 238.388 30.8873 238.4 21.7077V17.2923C238.388 8.1127 231.745 0.684446 223.536 0.671025H92.4637C84.2548 0.684446 77.6121 8.1127 77.6001 17.2923V21.7077C77.6121 30.8873 84.2548 38.3156 92.4637 38.329H223.536V38.6645Z" fill="url(#paint3_linear_124_2132)"/>
<defs>
<linearGradient id="paint0_linear_124_2132" x1="99" y1="14.0323" x2="216.871" y2="14.0323" gradientUnits="userSpaceOnUse">
<stop stop-color="#F3EC88"/>
<stop offset="0.142857" stop-color="#D19E33"/>
<stop offset="0.285714" stop-color="#F3EC88"/>
<stop offset="0.428571" stop-color="#D19E33"/>
<stop offset="0.571429" stop-color="#F3EC88"/>
<stop offset="0.714286" stop-color="#D19E33"/>
<stop offset="0.857143" stop-color="#F3EC88"/>
<stop offset="1" stop-color="#D19E33"/>
</linearGradient>
<linearGradient id="paint1_linear_124_2132" x1="253.213" y1="32.2122" x2="316.21" y2="32.2122" gradientUnits="userSpaceOnUse">
<stop stop-color="#F3EC88"/>
<stop offset="1" stop-color="#D19E33"/>
</linearGradient>
<linearGradient id="paint2_linear_124_2132" x1="1.21269" y1="32.2122" x2="64.2104" y2="32.2122" gradientUnits="userSpaceOnUse">
<stop stop-color="#F3EC88"/>
<stop offset="1" stop-color="#D19E33"/>
</linearGradient>
<linearGradient id="paint3_linear_124_2132" x1="74.2396" y1="11.2948" x2="236.846" y2="11.2948" gradientUnits="userSpaceOnUse">
<stop stop-color="#F3EC88"/>
<stop offset="1" stop-color="#D19E33"/>
</linearGradient>
</defs>
</svg>

<svg width="315" height="39" viewBox="0 0 315 39" fill="#SVGID_1_" xmlns="http://www.w3.org/2000/svg">
<linearGradient id="SVGID_1_" gradientUnits="userSpaceOnUse" x1="-37.1416" y1="19.5" x2="352.2143" y2="19.5">
	<stop  offset="0" style="stop-color:#F3EC88"/>
	<stop  offset="0.1429" style="stop-color:#D19E33"/>
	<stop  offset="0.2857" style="stop-color:#F3EC88"/>
	<stop  offset="0.4286" style="stop-color:#D19E33"/>
	<stop  offset="0.5714" style="stop-color:#F3EC88"/>
	<stop  offset="0.7143" style="stop-color:#D19E33"/>
	<stop  offset="0.8571" style="stop-color:#F3EC88"/>
	<stop  offset="1" style="stop-color:#D19E33"/>
</linearGradient>
<path class="st0" d="M111.5,13.8l-0.1,0.1c1.2,0.8,2.4,2.3,2.8,3.7C116.5,18.9,117.9,14.3,111.5,13.8z M110.6,11.9l0.2,0.6h6.3v-0.6
	H110.6z M110.2,18.1l0.2,0.6h7.3v-0.6H110.2z M113.2,18.1v8.8c0,0.3-0.1,0.4-0.4,0.4c-0.4,0-2.2-0.1-2.2-0.1v0.3
	c0.9,0.1,1.3,0.4,1.6,0.8c0.3,0.4,0.4,0.9,0.4,1.7c2.6-0.2,2.9-1.3,2.9-2.9v-8.9H113.2z M116.9,18.1c-0.1,1.1-0.4,3.1-0.7,4.3
	l0.2,0.1c0.9-0.9,2.1-2.4,2.8-3.4c0.4,0,0.7-0.1,0.8-0.3l-2.1-2l-1.2,1.2H116.9z M116.2,11.9c-0.4,1-1.4,2.6-2.1,3.5l0.2,0.1
	c1.4-0.6,3.3-1.7,4.3-2.6c0.4,0,0.7-0.1,0.8-0.3l-2.2-2.1l-1.3,1.3H116.2z M118.6,12l0.2,0.6h10.9c0.3,0,0.5-0.1,0.6-0.3
	c-0.9-0.8-2.4-2-2.4-2l-1.4,1.7H118.6z M121.1,18.1v0.6h6.3v-0.6H121.1z M121.1,21.2v0.6h6.3v-0.6H121.1z M121.1,24.4V25h6.3v-0.6
	H121.1z M123.1,12c0,1-0.1,2.5-0.2,3.3h0.4c0.9-0.8,2.1-2.1,2.9-3.3H123.1z M124.5,25.6l-0.2,0.2c1.2,0.9,2.8,2.5,3.4,3.9
	C130.1,30.8,131.2,26.1,124.5,25.6z M119.7,15v11.1h0.4c1,0,2-0.5,2-0.8v-9.7h5.2V15h-5.1l-2.5-1V15z M126.3,15v10.8h0.4
	c0.8,0,2-0.5,2-0.7v-9.3c0.4-0.1,0.6-0.2,0.7-0.4l-2.2-1.7l-1.1,1.2H126.3z M121.8,25.5c-0.9,1.3-3,3.1-4.9,4.1l0.1,0.3
	c2.4-0.4,5.3-1.5,6.7-2.6c0.4,0.1,0.6,0.1,0.7-0.1L121.8,25.5z M149.8,11.1l-3.3-0.9c-0.5,3.4-1.7,6.9-2.9,9.2l0.3,0.2
	c2.2-1.9,3.9-4.6,5.1-8C149.5,11.5,149.7,11.3,149.8,11.1z M151.9,14.2h0.2c-0.3,7.6-0.7,11.9-1.6,12.7c-0.2,0.2-0.4,0.3-0.8,0.3
	c-0.5,0-1.8-0.1-2.8-0.2v0.3c0.9,0.2,1.6,0.5,2,0.9c0.3,0.4,0.4,0.9,0.4,1.7c1.3,0,2.2-0.3,3-1.1c1.3-1.3,1.8-5.1,2.1-13.6
	c0.5-0.1,0.8-0.2,1-0.4l-2.2-1.9L151.9,14.2z M153.3,14.2h-6.3l-0.3,0.6h6.6V14.2z M146.6,17.7l-0.2,0.1c0.8,1.4,1.5,3.3,1.6,4.9
	C150.1,24.7,152.3,20.3,146.6,17.7z M144.8,15.8l-2.7-1.8c-0.9,2.1-3.7,5.8-5.6,7.1c-0.3,0.2-0.8,0.3-0.8,0.3l1,2.7
	c0.5-0.2,1-1,1.1-2.3h-1.1l0,0.3c2.7-1.4,6.1-4.4,7.5-6.2l-0.6,0.1C144.2,16.2,144.7,16,144.8,15.8z M142.5,11.6l-2.9-1.6
	c-0.5,1.7-2.1,4.8-3.3,5.8c-0.2,0.1-0.7,0.3-0.7,0.3l1.1,2.6c0.5-0.2,1-1,1.1-2.3h-1.2l0,0.3c1.8-1.1,4.2-3.5,5.3-5l-0.7,0.1
	C141.9,12,142.4,11.9,142.5,11.6z M137.9,24.2l-0.3,0c0,1.1-0.8,2.4-1.4,2.9c-0.6,0.4-0.9,1.1-0.6,1.7c0.4,0.8,1.5,0.8,2,0.2
	C138.4,28.2,138.7,26.5,137.9,24.2z M142,23.5l-0.2,0.1c0.7,0.9,1.2,2.4,1.3,3.6C144.8,28.8,146.8,25,142,23.5z M139.7,23.8
	l-0.3,0.1c0.2,1.2,0.3,2.7,0,4C141,29.8,143.6,26.6,139.7,23.8z M141.6,18.8l-0.2,0.1c0.6,1,1.2,2.6,1.3,3.8
	C144.4,24.4,146.4,20.8,141.6,18.8z M136.2,21.3l0.8,2.3c2.8-0.9,5.2-1.9,6.5-2.5l0-0.3C140.4,21.1,137.4,21.3,136.2,21.3z
	 M135.8,16.1l0.9,2.2c2.3-0.8,4.3-1.5,5.2-2v-0.3C139.5,16.1,137,16.2,135.8,16.1z M166.1,17.8v0.6h8.6v-0.6H166.1z M165.5,15.4v3.8
	h0.3c1,0,2-0.5,2-0.7v-2.6h6.8v-0.6H168l-2.5-1V15.4z M173.2,15.4v3.6h0.4c0.8,0,2-0.4,2-0.6v-2.1c0.4-0.1,0.6-0.2,0.7-0.4l-2.2-1.6
	l-1.1,1.1H173.2z M165,21.6v0.6h10.9v-0.6H165z M165,23.6v0.6h10.9v-0.6H165z M165,25.7v0.6h10.9v-0.6H165z M174.6,19.6v7.2h0.4
	c0.8,0,2-0.4,2-0.6v-5.6c0.4-0.1,0.7-0.3,0.8-0.4l-2.3-1.7l-1.1,1.2H174.6z M164.1,19.6v7.6h0.4c1,0,2-0.5,2-0.8v-6.3h9.1v-0.6h-8.9
	l-2.5-1V19.6z M167.9,26c-1.3,1.3-4.2,2.8-6.9,3.5l0.1,0.3c3.1-0.2,6.4-0.9,8.3-1.9c0.6,0.1,1,0.1,1.2-0.1L167.9,26z M171.4,26.9
	l-0.1,0.3c2.6,0.6,4.5,1.6,5.5,2.4C179.2,31.1,183.6,26.7,171.4,26.9z M163.2,13.5v0.6h15.1v-0.6H163.2z M163.2,12.4
	c0.1,1-0.6,2-1.2,2.4c-0.7,0.3-1.2,0.8-1,1.6c0.2,0.8,1.2,1,1.9,0.7c1.1-0.5,1.7-2.3,0.6-4.7L163.2,12.4z M176.9,13.5
	c-0.1,0.7-0.3,1.9-0.5,2.6l0.2,0.1c0.9-0.4,2.2-1.1,2.9-1.6c0.4,0,0.7-0.1,0.8-0.3l-2.3-2.2l-1.3,1.3H176.9z M169.3,10.1v3.7h2.5
	v-2.9c0.5-0.1,0.7-0.3,0.7-0.5L169.3,10.1z M164.4,10.3l-0.2,0.1c0.7,0.7,1.3,1.8,1.4,2.9C167.6,14.7,169.6,10.9,164.4,10.3z
	 M174.3,10.3c-0.3,1.1-0.9,2.6-1.4,3.7h0.3c1.2-0.7,2.7-1.7,3.6-2.4c0.5,0,0.7-0.1,0.8-0.4L174.3,10.3z M188.4,11.4V17
	c0,4.2-0.2,8.9-2.6,12.7l0.2,0.2c4.6-3.5,4.9-8.8,4.9-12.9v-5.4h0.4l-2.9-1V11.4z M201.4,11.6h0.2v4.7h0.4c0.8,0,2-0.4,2-0.5v-3.2
	c0.4-0.1,0.7-0.3,0.9-0.4l-2.4-1.8L201.4,11.6z M203.2,14.9h-13.4v0.6h13.4V14.9z M202.9,11.6h-13.3v0.6h13.3V11.6z M191.3,21.1
	l1,2.2c4.5-0.8,8.1-1.6,10.2-2.1l0-0.3C197.8,21,193.3,21.1,191.3,21.1z M198.6,17.9v-0.2h-3.2c-0.6,0.9-2.3,2.7-3.7,3.2
	c-0.2,0.1-0.7,0.1-0.7,0.1l1.1,2.7c0.5-0.2,1-1.1,1.1-2.4h-1.1v0.2C194.2,20.8,197.1,19.2,198.6,17.9z M199,18.9l-0.1,0.2
	c1.4,0.9,3,2.5,3.8,3.9C205.1,24.1,206.1,19.2,199,18.9z M203.3,26.7l-1.3,1.7h-12.8l0.2,0.6H205c0.3,0,0.5-0.1,0.6-0.3
	C204.8,27.9,203.3,26.7,203.3,26.7z M201.9,23.5l-1.2,1.5h-9.8l0.2,0.6h12.5c0.3,0,0.5-0.1,0.6-0.3
	C203.3,24.5,201.9,23.5,201.9,23.5z M202.7,16.1l-1.3,1.6h-10.3l0.2,0.6h13.1c0.3,0,0.5-0.1,0.6-0.3
	C204.1,17.1,202.7,16.1,202.7,16.1z M199.2,22.8l-3.1-0.3v6.1h2.4v-5.3C199,23.3,199.1,23.1,199.2,22.8z M315,20h-63v1h63V20z
	 M63,20H0v1h63V20z M223.5,38.7V39H92.5C83.9,39,77,31.3,77,21.7v-4.4C77,7.7,83.9,0,92.5,0h131.1c8.5,0,15.5,7.7,15.5,17.3v4.4
	c0,9.5-6.9,17.3-15.5,17.3v-0.7c8.2,0,14.9-7.4,14.9-16.6v-4.4c0-9.2-6.7-16.6-14.9-16.6H92.5c-8.2,0-14.9,7.4-14.9,16.6v4.4
	c0,9.2,6.7,16.6,14.9,16.6h131.1V38.7z"/>
</svg>
